src/main/resources/icons/JavaUltimateIcons/icons/cdi/gutter/beanInfrastructure.svg

<svg xmlns="http://www.w3.org/2000/svg" width="12" height="12" viewBox="0 0 12 12">
  <g fill="none" fill-rule="evenodd">
    <path fill="#40B6E0" fill-opacity=".7" d="M1.10685771,2.02704609 L5.09942399,6.07035485 C4.59575106,6.78594074 4.3,7.65843219 4.3,8.6 C4.3,9.88302425 4.84915234,11.0377871 5.72523418,11.8420657 C4.46264289,11.584569 3.21901405,10.8590019 2.14694343,9.77360609 C-0.115285146,7.48325942 -0.794628003,4.41808609 1.10685771,2.02704609 Z M9.65258628,2.17467275 C10.5730716,3.10659908 11.2314911,4.16680728 11.5606173,5.25762915 C10.7912607,4.59787206 9.79209436,4.2 8.7,4.2 C7.67126224,4.2 6.72498301,4.55304696 5.97571312,5.14459006 L2.00028628,1.12080609 C4.361972,-0.804313912 7.38951485,-0.117380579 9.65258628,2.17467275 Z"/>
    <path fill="#9AA7B0" d="M11.2041,9.0078 L12.0001,9.5788 C11.8471,10.0528 11.5961,10.4828 11.2691,10.8438 L10.3771,10.4418 C10.1231,10.6648 9.8241,10.8398 9.4961,10.9498 L9.3991,11.9248 C9.1631,11.9758 8.9191,12.0008 8.6681,12.0008 C8.4181,12.0008 8.1731,11.9758 7.9371,11.9248 L7.8411,10.9498 C7.5131,10.8398 7.2141,10.6648 6.9601,10.4418 L6.0671,10.8438 C5.7411,10.4828 5.4901,10.0528 5.3371,9.5788 L6.1331,9.0078 C6.1001,8.8438 6.0831,8.6738 6.0831,8.5008 C6.0831,8.3268 6.1001,8.1578 6.1331,7.9938 L5.3371,7.4228 C5.4901,6.9488 5.7411,6.5198 6.0671,6.1578 L6.9601,6.5608 C7.2141,6.3368 7.5131,6.1618 7.8411,6.0508 L7.9371,5.0758 C8.1731,5.0268 8.4181,4.9998 8.6681,4.9998 C8.9191,4.9998 9.1631,5.0268 9.3991,5.0758 L9.4961,6.0508 C9.8241,6.1618 10.1231,6.3368 10.3771,6.5608 L11.2691,6.1578 C11.5961,6.5198 11.8471,6.9488 12.0001,7.4228 L11.2041,7.9938 C11.2361,8.1578 11.2541,8.3268 11.2541,8.5008 C11.2541,8.6738 11.2361,8.8438 11.2041,9.0078 M8.6681,9.7388 C9.3521,9.7388 9.9071,9.1848 9.9071,8.5008 C9.9071,7.8168 9.3521,7.2618 8.6681,7.2618 C7.9841,7.2618 7.4301,7.8168 7.4301,8.5008 C7.4301,9.1848 7.9841,9.7388 8.6681,9.7388"/>
  </g>
</svg>

<svg xmlns="http://www.w3.org/2000/svg" width="12" height="12" viewBox="0 0 12 12"><rect id="frame" width="12" height="12" fill="none"/><g fill="none" fill-rule="evenodd"><path fill="#40B6E0" fill-opacity=".7" d="M1.107 2.027L5.099 6.07A4.38 4.38 0 0 0 4.3 8.6c0 1.283.55 2.438 1.425 3.242-1.262-.257-2.506-.983-3.578-2.068-2.262-2.29-2.942-5.356-1.04-7.747zm8.546.148c.92.932 1.578 1.992 1.908 3.083A4.379 4.379 0 0 0 8.7 4.2a4.381 4.381 0 0 0-2.724.945L2 1.12C4.362-.804 7.39-.117 9.653 2.175z"/><path fill="#9AA7B0" d="M11.204 9.008l.796.57a3.473 3.473 0 0 1-.73 1.266l-.893-.402a2.582 2.582 0 0 1-.88.508l-.098.975c-.236.05-.48.076-.73.076a3.46 3.46 0 0 1-.732-.076l-.096-.975a2.582 2.582 0 0 1-.88-.508l-.894.402a3.485 3.485 0 0 1-.73-1.265l.796-.571a2.572 2.572 0 0 1 0-1.014l-.796-.571c.153-.474.404-.903.73-1.265l.893.403c.254-.224.553-.4.881-.51l.096-.975a3.597 3.597 0 0 1 1.462 0l.097.975c.328.11.627.286.881.51l.892-.403c.327.362.578.79.731 1.265l-.796.57a2.641 2.641 0 0 1 0 1.015m-2.536.73a1.239 1.239 0 1 0 .001-2.476 1.239 1.239 0 0 0 0 2.477"/></g></svg>
